lib/preview_tmp/nrk-logo-nrk-tegnspraak.svg

<svg width="142" height="24" viewBox="0 0 142 24" fill="none" xmlns="http://www.w3.org/2000/svg">
<path d="M0 18.6666V4.66792H4.59339V18.6666H0ZM10.8428 6.89589L13.4844 18.6666H8.45737L5.30307 4.66792H8.12254C8.76907 4.65953 9.39641 4.88744 9.88691 5.30877C10.3782 5.71242 10.7158 6.27279 10.8428 6.89589ZM14.1744 18.6666V4.66792H18.7678V18.6666H14.1744ZM22.2372 9.99143C21.7422 9.99625 21.2552 9.86675 20.828 9.61677C20.4064 9.37312 20.0563 9.02293 19.8127 8.60134C19.5624 8.17403 19.4329 7.68687 19.4378 7.19168C19.4321 6.69952 19.5618 6.21526 19.8127 5.79181C20.0589 5.3748 20.4086 5.02842 20.828 4.78625C21.2553 4.53657 21.7423 4.40708 22.2372 4.41159C22.7292 4.4063 23.2133 4.5359 23.6369 4.78625C24.0521 5.03054 24.3981 5.37663 24.6424 5.79181C24.893 6.21537 25.0226 6.69956 25.0172 7.19168C25.0218 7.68683 24.8923 8.17391 24.6424 8.60134C24.4007 9.02108 24.0542 9.37097 23.6369 9.61677C23.2133 9.86762 22.7289 9.99725 22.2366 9.99143H22.2372ZM25.7269 18.6666V4.66792H30.3207V18.6666H25.7269ZM36.136 12.3179C36.1489 12.3315 36.2475 12.4925 36.4317 12.801C36.6159 13.1094 36.8558 13.5038 37.1513 13.984C37.447 14.464 37.759 14.9733 38.0874 15.512C38.4157 16.0507 38.7247 16.5601 39.0143 17.0401C39.3028 17.52 39.6313 18.0622 40 18.6666H34.9531C34.6375 18.154 34.3515 17.6907 34.0952 17.2766C33.8389 16.8626 33.5665 16.4157 33.2778 15.9359C32.9884 15.4566 32.7024 14.9899 32.4196 14.536C32.1368 14.0821 31.8938 13.6845 31.6905 13.3432C31.4863 13.0017 31.3449 12.7716 31.2663 12.6531C31.0713 12.359 30.9559 12.0193 30.9315 11.6673C30.951 11.3294 31.0597 11.0028 31.2466 10.7206C31.3254 10.5892 31.47 10.3558 31.6803 10.0206C31.8906 9.68545 32.137 9.28787 32.4196 8.82782C32.7021 8.36777 32.9882 7.89785 33.2778 7.41808C33.5674 6.93832 33.8398 6.48809 34.0952 6.06747C34.3519 5.64729 34.6379 5.18066 34.9531 4.6676H40L36.0962 11.0361C35.9754 11.2251 35.9073 11.443 35.8991 11.6673C35.9121 11.9027 35.9942 12.129 36.1353 12.3179H36.136Z" fill="white"/>
<path d="M45.3334 6.38531H49.8579V18.6748H51.9325V6.38531H56.4377V4.64659H45.3334V6.38531Z" fill="white"/>
<path d="M65.9611 9.87261C65.5819 9.38102 65.0815 8.99636 64.5089 8.75629C63.8727 8.49663 63.1904 8.36891 62.5034 8.38088C61.8113 8.36913 61.1245 8.50379 60.4881 8.77605C59.9092 9.02951 59.3932 9.40725 58.9766 9.8825C58.5475 10.3818 58.2247 10.9633 58.0279 11.5916C57.8027 12.3107 57.6928 13.0609 57.7022 13.8144C57.6742 14.7664 57.874 15.7113 58.2848 16.5706C58.6603 17.3152 59.2668 17.9182 60.0136 18.2896C60.8899 18.7023 61.8514 18.902 62.8196 18.8724C63.2853 18.8764 63.7507 18.8467 64.2122 18.7835C64.5979 18.728 64.9781 18.6387 65.3482 18.5168C65.7154 18.3936 66.0723 18.2417 66.4155 18.0623L66.5538 16.541C66.3033 16.6332 66.0497 16.7254 65.7928 16.8176C65.536 16.9098 65.2692 16.9921 64.9926 17.0646C64.7136 17.1376 64.4297 17.1905 64.143 17.2226C63.8545 17.2555 63.5644 17.272 63.274 17.272C62.7552 17.2804 62.2374 17.224 61.7325 17.1041C61.3253 17.0068 60.9486 16.8099 60.6363 16.5311C60.3204 16.2305 60.0888 15.8524 59.9645 15.4345C59.8353 15.0113 59.763 14.5728 59.7492 14.1305H66.8894C66.9866 13.3133 66.9499 12.4858 66.7807 11.6805C66.6418 11.0256 66.3622 10.4087 65.9611 9.87261ZM60.9821 10.3468C61.4456 10.0654 61.9809 9.92468 62.5229 9.94177C63.0655 9.91464 63.6015 10.0713 64.0442 10.3863C64.4378 10.7003 64.7187 11.1337 64.8444 11.6212C64.943 11.9817 64.9915 12.354 64.9887 12.7277H59.7923C59.8292 12.3337 59.9134 11.9456 60.0432 11.5718C60.2119 11.0708 60.5422 10.64 60.9821 10.3468Z" fill="white"/>
<path d="M75.6916 8.63773C75.3898 8.55511 75.0829 8.49242 74.7728 8.45005C74.4191 8.40249 74.0625 8.37937 73.7056 8.38089C73.061 8.37824 72.4226 8.50594 71.8286 8.75629C71.2334 9.00825 70.693 9.37402 70.238 9.8331C69.7531 10.3281 69.3792 10.9209 69.1415 11.5718C68.8658 12.3347 68.7319 13.1416 68.7463 13.9527C68.7247 14.8449 68.8964 15.7313 69.2498 16.5508C69.5596 17.2517 70.0725 17.8436 70.7221 18.25C71.4329 18.6694 72.2481 18.8783 73.073 18.8527C73.7977 18.8501 74.5152 18.7092 75.1871 18.4377C75.5887 18.2742 75.9673 18.0591 76.3133 17.7979V18.3389C76.3214 18.7841 76.2581 19.2277 76.1259 19.6529C76.0119 20.0095 75.8156 20.3344 75.553 20.6012C75.2698 20.8731 74.9234 21.07 74.545 21.1742C74.0529 21.3094 73.5437 21.3726 73.0335 21.3619C72.6276 21.3613 72.222 21.3382 71.8187 21.2928C71.3951 21.2449 70.9756 21.1656 70.5637 21.0557C70.1396 20.9427 69.7237 20.8007 69.319 20.6309L69.5363 22.3696C69.8997 22.517 70.2728 22.6392 70.653 22.7351C71.0528 22.8361 71.4585 22.912 71.8678 22.9623C72.3004 23.0155 72.7359 23.0419 73.1718 23.0414C74.1442 23.0718 75.1107 22.8792 75.9972 22.4783C76.717 22.1431 77.3193 21.5993 77.726 20.9174C78.124 20.2166 78.3255 19.4213 78.3092 18.6156V8.38089L76.3765 8.87813C76.1535 8.78369 75.9247 8.70339 75.6916 8.63773ZM76.0568 16.5508C75.8121 16.6931 75.5579 16.8186 75.2961 16.9263C75.0655 17.021 74.8277 17.097 74.5848 17.1535C74.3483 17.207 74.1065 17.2335 73.864 17.2325C73.2705 17.254 72.6815 17.1212 72.1546 16.8472C71.6955 16.5851 71.34 16.1737 71.1473 15.6815C70.9091 15.0406 70.7983 14.3594 70.8212 13.6761C70.8123 13.1307 70.8889 12.5874 71.0481 12.0658C71.1776 11.637 71.4004 11.2423 71.7005 10.9099C71.9927 10.6009 72.3504 10.3612 72.7473 10.2085C73.1984 10.0376 73.6777 9.9538 74.16 9.96153C74.4714 9.96129 74.7822 9.98773 75.089 10.0406C75.4032 10.096 75.7133 10.1719 76.0176 10.2678C76.1144 10.2981 76.2152 10.3382 76.314 10.3751V16.3987C76.2271 16.4507 76.1385 16.5041 76.0568 16.5508Z" fill="white"/>
<path d="M89.1169 8.79581C88.5299 8.49932 87.8773 8.35656 87.2201 8.38089C86.6466 8.382 86.0767 8.47198 85.5308 8.64762C84.9682 8.82685 84.433 9.08282 83.9403 9.4083C83.7496 9.53377 83.5662 9.67174 83.387 9.81334V8.40064L81.3717 8.69702V18.6748H83.387V11.1707C83.5821 11.0565 83.7833 10.9529 83.9896 10.8605C84.2672 10.7377 84.5508 10.6289 84.8393 10.5345C85.1168 10.4438 85.4008 10.3745 85.6889 10.327C85.9599 10.2819 86.2341 10.2588 86.5088 10.2579C86.8312 10.2504 87.1524 10.3006 87.4572 10.4061C87.7087 10.4967 87.933 10.6497 88.1092 10.8506C88.2906 11.0686 88.4191 11.3255 88.4846 11.6014C88.5688 11.9507 88.6086 12.3092 88.6032 12.6684V18.6748H90.6185V12.2535C90.6448 11.5044 90.517 10.758 90.2431 10.0603C90.0199 9.52456 89.6233 9.07926 89.1169 8.79581Z" fill="white"/>
<path d="M99.8452 14.1305C99.6428 13.9161 99.4098 13.733 99.1537 13.5871C98.8884 13.4353 98.6107 13.3064 98.3235 13.2018C98.1127 13.136 97.9053 13.0668 97.7011 12.9944C97.4969 12.9219 97.2928 12.8561 97.0886 12.7968C96.8844 12.7375 96.6868 12.675 96.4958 12.6091C96.3168 12.5481 96.1419 12.4755 95.9723 12.3918C95.8098 12.3055 95.6546 12.2064 95.5079 12.0954C95.3726 11.9934 95.2586 11.8659 95.1724 11.72C95.0852 11.5702 95.0407 11.3994 95.0436 11.226C95.0383 11.0356 95.0864 10.8474 95.1823 10.6827C95.2854 10.5209 95.4282 10.3883 95.5972 10.2974C95.8039 10.1838 96.0273 10.1038 96.2591 10.0603C96.5488 10.0047 96.8434 9.97826 97.1383 9.98127C97.2829 9.98127 97.4409 9.98819 97.6125 10.001C97.7841 10.0139 97.9711 10.0376 98.1756 10.0702C98.3801 10.1028 98.5836 10.1463 98.7878 10.1986C98.9919 10.251 99.1994 10.3106 99.4105 10.3764C99.6059 10.4365 99.7971 10.5091 99.9831 10.5938L100.122 8.99337C99.8713 8.888 99.6243 8.7958 99.3809 8.71677C99.1375 8.63791 98.8902 8.57195 98.6399 8.51918C98.3955 8.46739 98.148 8.43111 97.899 8.41052C97.6551 8.39076 97.4147 8.38088 97.1778 8.38088C96.6321 8.3753 96.0877 8.43836 95.5577 8.56858C95.1043 8.67868 94.6733 8.86581 94.2833 9.1218C93.9296 9.35565 93.6407 9.67509 93.4435 10.0504C93.237 10.464 93.1353 10.922 93.1472 11.3841C93.1412 11.717 93.1948 12.0482 93.3056 12.3621C93.3992 12.6256 93.5398 12.8699 93.7205 13.0833C93.8962 13.2849 94.099 13.4611 94.3231 13.6069C94.5565 13.76 94.8047 13.8891 95.064 13.9922C95.2087 14.0448 95.3602 14.0975 95.5185 14.1502C95.6768 14.2029 95.8315 14.2523 95.9828 14.2984C96.134 14.3448 96.2821 14.3906 96.427 14.4367C96.5719 14.4828 96.7135 14.5289 96.8518 14.575C96.9902 14.6211 97.1251 14.6639 97.2572 14.7035C97.4338 14.7661 97.6054 14.842 97.7706 14.9307C97.9156 15.0074 98.0516 15.1002 98.176 15.2073C98.2853 15.3028 98.3727 15.4207 98.4325 15.553C98.4931 15.6898 98.5235 15.8381 98.5217 15.9877C98.5287 16.1339 98.5031 16.2798 98.4467 16.4148C98.3902 16.5498 98.3044 16.6705 98.1954 16.7682C97.9508 16.9726 97.6586 17.1119 97.3458 17.1732C96.9794 17.2541 96.605 17.2939 96.2298 17.2918C95.9952 17.2901 95.7609 17.2736 95.5284 17.2424C95.2715 17.2099 95.0015 17.1638 94.7183 17.1041C94.4351 17.0443 94.1452 16.9719 93.8486 16.8867C93.5525 16.8013 93.2529 16.7058 92.95 16.6002L93.029 18.2797C93.371 18.3982 93.6838 18.4937 93.9675 18.5662C94.2511 18.6386 94.5211 18.7012 94.7775 18.7539C95.0251 18.8052 95.276 18.8382 95.5284 18.8526C95.7718 18.8658 96.0188 18.8724 96.2693 18.8724C96.8203 18.8752 97.3699 18.8189 97.9089 18.7045C98.3834 18.608 98.8378 18.4309 99.2524 18.1809C99.6262 17.9527 99.9357 17.6331 100.152 17.2522C100.378 16.8342 100.49 16.3641 100.477 15.8889C100.486 15.5422 100.429 15.1971 100.31 14.8714C100.203 14.5971 100.046 14.3456 99.8452 14.1305Z" fill="white"/>
<path d="M110.465 9.00325C109.756 8.56907 108.935 8.35266 108.104 8.38087C107.611 8.38328 107.12 8.44633 106.642 8.56858C106.125 8.69982 105.628 8.89566 105.16 9.15144C105.067 9.20183 104.975 9.25781 104.883 9.31445V8.40063L102.868 8.71676V22.824H104.883V18.4005C104.897 18.4061 104.91 18.4124 104.923 18.418C105.288 18.5697 105.669 18.679 106.059 18.744C106.519 18.8199 106.985 18.8563 107.452 18.8526C108.342 18.8679 109.219 18.6427 109.991 18.2006C110.749 17.7511 111.365 17.0972 111.769 16.3137C112.236 15.3797 112.463 14.3443 112.431 13.3006C112.449 12.4182 112.278 11.5422 111.928 10.7321C111.618 10.0261 111.11 9.42537 110.465 9.00325ZM109.942 15.6123C109.704 16.1371 109.306 16.5729 108.805 16.8571C108.249 17.1487 107.626 17.2916 106.998 17.272C106.697 17.2722 106.396 17.249 106.099 17.2028C105.787 17.153 105.479 17.077 105.18 16.9756C105.085 16.9427 104.982 16.9052 104.883 16.8689V10.6336C104.91 10.6214 104.937 10.6056 104.963 10.5938C105.252 10.462 105.522 10.3501 105.773 10.2579C106.01 10.1694 106.254 10.1033 106.504 10.0603C106.726 10.0221 106.95 10.0023 107.175 10.001C107.785 9.98085 108.389 10.1133 108.934 10.3863C109.41 10.6457 109.783 11.0606 109.991 11.5619C110.242 12.2031 110.36 12.8889 110.337 13.5772C110.358 14.2765 110.223 14.9717 109.942 15.6123Z" fill="white"/>
<path d="M119.01 8.5284C118.64 8.62743 118.288 8.78057 117.963 8.98284C117.626 9.19319 117.314 9.44181 117.034 9.72377C116.988 9.7702 116.942 9.82255 116.896 9.87162V8.39997L114.88 8.69635V18.6742H116.896V11.2096C117.046 11.105 117.201 11.0081 117.36 10.9191C117.558 10.8103 117.763 10.7146 117.973 10.6326C118.177 10.5536 118.384 10.4845 118.595 10.4252C118.812 10.3648 119.033 10.3219 119.257 10.2967C119.496 10.2701 119.738 10.2635 119.978 10.277L120.215 8.41973C119.81 8.39063 119.403 8.42734 119.01 8.5284Z" fill="white"/>
<path d="M130.608 17.4301C130.464 17.4433 130.318 17.4215 130.184 17.3664C130.05 17.3114 129.931 17.2248 129.838 17.1139C129.654 16.7974 129.578 16.4301 129.62 16.0668L129.66 11.9966C129.664 11.5699 129.611 11.1446 129.502 10.7321C129.406 10.3703 129.245 10.029 129.028 9.72443C128.808 9.42659 128.529 9.17764 128.208 8.99337C127.835 8.78172 127.432 8.62846 127.012 8.53893C126.499 8.42816 125.976 8.37515 125.451 8.38087C125.035 8.38069 124.619 8.40708 124.207 8.4599C123.816 8.50899 123.43 8.58491 123.051 8.68712C122.699 8.78262 122.352 8.89806 122.013 9.03288L121.776 10.7123C122.106 10.5938 122.418 10.495 122.715 10.416C123.011 10.3369 123.298 10.2711 123.574 10.2184C123.845 10.1666 124.119 10.1303 124.394 10.1097C124.664 10.0899 124.931 10.0801 125.194 10.0801C125.597 10.0716 126 10.1181 126.39 10.2184C126.675 10.2897 126.936 10.4325 127.15 10.6333C127.341 10.8287 127.477 11.0705 127.546 11.3347C127.63 11.6604 127.67 11.9961 127.664 12.3325L127.662 12.8284L125.353 12.9845C124.563 13.0065 123.784 13.1809 123.061 13.4982C122.519 13.7352 122.051 14.114 121.707 14.5948C121.415 15.0226 121.26 15.529 121.263 16.047C121.259 16.533 121.378 17.0121 121.608 17.4399C121.85 17.8794 122.214 18.2397 122.656 18.4772C123.195 18.7576 123.797 18.8938 124.404 18.8724C124.973 18.8855 125.539 18.7917 126.074 18.5958C126.536 18.4149 126.958 18.1465 127.318 17.8055C127.455 17.6744 127.585 17.5362 127.707 17.3915C127.745 17.5961 127.818 17.7928 127.921 17.9734C128.097 18.2759 128.368 18.512 128.692 18.6452C129.049 18.7889 129.432 18.8594 129.818 18.8526C129.936 18.8526 130.052 18.8494 130.164 18.8428C130.274 18.8361 130.383 18.8196 130.49 18.7934C130.595 18.7667 130.69 18.744 130.776 18.7242C130.853 18.7069 130.929 18.6838 131.003 18.6551L131.221 17.3313C131.112 17.3687 130.999 17.3952 130.885 17.4103C130.793 17.4225 130.701 17.4291 130.608 17.4301ZM127.318 16.5409C127.104 16.7104 126.872 16.8561 126.627 16.9756C126.382 17.0944 126.123 17.1807 125.857 17.2325C125.58 17.2858 125.299 17.3123 125.017 17.3115C124.695 17.3207 124.374 17.2601 124.078 17.1337C123.837 17.029 123.634 16.8532 123.495 16.6299C123.358 16.393 123.29 16.1228 123.298 15.8494C123.279 15.52 123.369 15.1936 123.555 14.9208C123.77 14.6697 124.061 14.4962 124.384 14.4268C124.889 14.3079 125.407 14.2548 125.925 14.2688H127.656L127.647 16.2298C127.546 16.3428 127.437 16.4469 127.318 16.5409Z" fill="white"/>
<path d="M124.295 6.80023C124.669 6.97682 125.078 7.06471 125.491 7.05708C125.914 7.06539 126.334 6.97402 126.716 6.79035C127.06 6.62292 127.351 6.36295 127.556 6.03955C127.767 5.69171 127.873 5.29041 127.862 4.8837C127.874 4.58868 127.823 4.29445 127.71 4.02148C127.597 3.7485 127.427 3.50334 127.21 3.30306C126.747 2.89748 126.145 2.68527 125.53 2.7103C125.119 2.70565 124.711 2.78989 124.335 2.95728C123.982 3.1144 123.683 3.37212 123.475 3.6982C123.256 4.06083 123.146 4.47957 123.159 4.90346C123.146 5.31358 123.252 5.71878 123.466 6.06918C123.669 6.3849 123.957 6.63797 124.295 6.80023ZM124.612 3.95507C124.736 3.84451 124.882 3.75967 125.039 3.70542C125.197 3.65117 125.364 3.62857 125.53 3.63893C125.775 3.62789 126.018 3.6861 126.232 3.80688C126.404 3.91297 126.542 4.06762 126.627 4.25145C126.715 4.45025 126.759 4.66609 126.755 4.8837C126.759 5.10237 126.712 5.3189 126.617 5.51595C126.528 5.69757 126.387 5.84879 126.212 5.95063C125.997 6.06517 125.754 6.11975 125.511 6.10869C125.279 6.11555 125.049 6.06819 124.839 5.97039C124.658 5.88243 124.512 5.73632 124.424 5.55547C124.326 5.34535 124.279 5.11533 124.286 4.8837C124.273 4.71484 124.296 4.54528 124.352 4.38555C124.408 4.22581 124.497 4.07929 124.612 3.95507Z" fill="white"/>
<path d="M139.183 18.6748H141.791L136.998 13.2743L141.692 8.59821H139.222L135.841 12.3127H135.113V3.7575L133.097 4.05386V18.6748H135.113V13.8341H135.146L139.183 18.6748Z" fill="white"/>
</svg>

<svg xmlns="http://www.w3.org/2000/svg" viewBox="0 0 142 24"><path fill="#fff" d="M0 18.667v-14h4.593v14H0ZM10.843 6.896l2.641 11.77H8.457L5.303 4.669h2.82a2.655 2.655 0 0 1 1.764.64c.491.404.829.965.956 1.588Zm3.331 11.77V4.669h4.594v13.999h-4.594Zm8.063-8.675a2.737 2.737 0 0 1-1.409-.374A2.778 2.778 0 0 1 19.813 8.6a2.735 2.735 0 0 1-.375-1.41 2.685 2.685 0 0 1 .375-1.4 2.812 2.812 0 0 1 3.824-1.005c.415.245.761.59 1.005 1.006.251.423.38.908.375 1.4.005.495-.125.982-.375 1.41a2.8 2.8 0 0 1-1.005 1.015c-.424.25-.908.38-1.4.374Zm3.49 8.676v-14h4.594v14h-4.594Zm10.409-6.35c.013.014.111.175.296.484.184.308.424.703.72 1.183a384.573 384.573 0 0 1 1.862 3.056c.289.48.617 1.022.986 1.627h-5.047l-.858-1.39c-.256-.414-.529-.861-.817-1.341-.29-.48-.576-.946-.858-1.4a71.148 71.148 0 0 1-.73-1.193 21.119 21.119 0 0 0-.424-.69 2.04 2.04 0 0 1-.334-.986c.019-.338.128-.664.315-.946.078-.132.223-.365.433-.7a216.7 216.7 0 0 0 1.598-2.603l.817-1.35.858-1.4H40l-3.904 6.368c-.12.19-.189.407-.197.631.013.236.095.462.236.65h.001ZM45.333 6.385h4.525v12.29h2.075V6.385h4.505V4.647H45.333v1.738ZM65.961 9.873a3.584 3.584 0 0 0-1.452-1.117 5.073 5.073 0 0 0-2.006-.375 4.912 4.912 0 0 0-2.015.395 4.307 4.307 0 0 0-1.511 1.107c-.43.499-.752 1.08-.95 1.709a7.14 7.14 0 0 0-.325 2.222 5.983 5.983 0 0 0 .583 2.757 3.862 3.862 0 0 0 1.729 1.719 6.145 6.145 0 0 0 2.806.582c.465.004.93-.025 1.392-.088a6.667 6.667 0 0 0 1.136-.267 7.352 7.352 0 0 0 1.067-.455l.139-1.521-.761.277a9.482 9.482 0 0 1-.8.247 5.989 5.989 0 0 1-.85.158 7.67 7.67 0 0 1-.869.049 6.235 6.235 0 0 1-1.541-.168 2.528 2.528 0 0 1-1.097-.573 2.496 2.496 0 0 1-.672-1.096 5 5 0 0 1-.215-1.305h7.14a7.568 7.568 0 0 0-.108-2.45 4.617 4.617 0 0 0-.82-1.807Zm-4.979.474a2.8 2.8 0 0 1 1.54-.405 2.416 2.416 0 0 1 1.522.444c.394.314.675.748.8 1.235.099.36.148.733.145 1.107h-5.197c.037-.394.121-.782.251-1.156.169-.501.5-.932.94-1.225ZM75.692 8.638a7.14 7.14 0 0 0-.92-.188 7.76 7.76 0 0 0-1.066-.07 4.782 4.782 0 0 0-1.877.376 4.964 4.964 0 0 0-1.591 1.077 4.874 4.874 0 0 0-1.097 1.739 6.658 6.658 0 0 0-.395 2.38c-.021.893.15 1.78.504 2.599.31.7.823 1.293 1.472 1.699a4.36 4.36 0 0 0 2.351.603 5.697 5.697 0 0 0 2.114-.415c.402-.164.78-.379 1.126-.64v.54a4.17 4.17 0 0 1-.187 1.315 2.39 2.39 0 0 1-.573.948 2.36 2.36 0 0 1-1.008.573 5.287 5.287 0 0 1-1.511.188c-.406 0-.812-.024-1.215-.07a8.63 8.63 0 0 1-1.255-.236 9.617 9.617 0 0 1-1.245-.425l.217 1.739c.364.147.737.27 1.117.365.4.101.805.177 1.215.227.432.053.868.08 1.304.08a6.374 6.374 0 0 0 2.825-.564 3.959 3.959 0 0 0 1.729-1.56c.398-.701.6-1.497.583-2.302V8.38l-1.933.497a5.764 5.764 0 0 0-.684-.24Zm.365 7.913a6.223 6.223 0 0 1-.76.375c-.231.095-.47.171-.712.228-.237.053-.478.08-.721.079a3.436 3.436 0 0 1-1.71-.386 2.314 2.314 0 0 1-1.007-1.166 5.251 5.251 0 0 1-.326-2.005 5.224 5.224 0 0 1 .227-1.61c.13-.429.352-.824.653-1.156.292-.31.65-.549 1.046-.701.451-.171.93-.255 1.413-.247.311 0 .622.026.929.079.314.055.624.13.929.227.096.03.197.07.296.107V16.4c-.087.052-.175.105-.257.152ZM89.117 8.796a3.888 3.888 0 0 0-1.897-.415 5.55 5.55 0 0 0-1.69.267 6.422 6.422 0 0 0-1.59.76c-.19.126-.374.264-.553.405V8.401l-2.015.296v9.978h2.015V11.17c.195-.114.396-.218.603-.31.277-.123.56-.232.85-.327.277-.09.56-.16.849-.207.27-.045.545-.068.82-.07.322-.007.643.044.948.15.252.09.476.243.652.444.182.218.31.474.376.75.084.35.124.708.118 1.067v6.007h2.016v-6.421a5.476 5.476 0 0 0-.376-2.194 2.591 2.591 0 0 0-1.126-1.264ZM99.845 14.13a2.978 2.978 0 0 0-.691-.543 5.376 5.376 0 0 0-.83-.385c-.211-.066-.419-.135-.623-.208a10.993 10.993 0 0 0-.612-.197c-.205-.06-.402-.122-.593-.188a4.363 4.363 0 0 1-.524-.217 3.456 3.456 0 0 1-.464-.297 1.295 1.295 0 0 1-.336-.375.95.95 0 0 1-.128-.494c-.006-.19.042-.379.138-.543.103-.162.246-.295.415-.386.207-.113.43-.193.662-.237.29-.055.584-.082.88-.079a6.42 6.42 0 0 1 1.037.09c.204.032.408.075.612.128.204.052.411.112.623.177.195.06.386.133.572.218l.139-1.6a9.43 9.43 0 0 0-.741-.277 7.27 7.27 0 0 0-.741-.198 5.933 5.933 0 0 0-.741-.108 8.93 8.93 0 0 0-.721-.03 6.512 6.512 0 0 0-1.62.188c-.454.11-.885.297-1.275.553a2.516 2.516 0 0 0-.84.928 2.823 2.823 0 0 0-.296 1.334c-.006.333.048.664.159.978.093.264.234.508.415.721.175.202.378.378.602.524.234.153.482.282.741.385a17.65 17.65 0 0 0 .919.306 45.475 45.475 0 0 1 .869.277c.138.046.273.089.405.129.177.062.348.138.514.227.145.076.28.17.405.276a1.013 1.013 0 0 1 .346.78.986.986 0 0 1-.327.781 1.892 1.892 0 0 1-.85.405c-.366.081-.74.12-1.115.119a5.578 5.578 0 0 1-.702-.05 10.053 10.053 0 0 1-.81-.138c-.283-.06-.573-.132-.87-.217-.296-.086-.595-.181-.898-.287l.079 1.68c.342.118.655.214.939.286.283.073.553.135.81.188.247.051.498.084.75.099.244.013.49.02.741.02.551.002 1.1-.054 1.64-.169a4.237 4.237 0 0 0 1.343-.523c.374-.228.684-.548.9-.929a2.71 2.71 0 0 0 .325-1.363 2.757 2.757 0 0 0-.167-1.018 2.32 2.32 0 0 0-.465-.74ZM110.465 9.003a4.245 4.245 0 0 0-2.361-.622 6.02 6.02 0 0 0-1.462.188 6.342 6.342 0 0 0-1.759.745v-.913l-2.015.316v14.107h2.015V18.4l.04.018c.365.152.746.261 1.136.326.46.076.926.112 1.393.109.89.015 1.767-.21 2.539-.652a4.695 4.695 0 0 0 1.778-1.887c.467-.934.694-1.97.662-3.013a6.159 6.159 0 0 0-.503-2.569 3.976 3.976 0 0 0-1.463-1.729Zm-.523 6.61c-.238.524-.636.96-1.137 1.244a3.647 3.647 0 0 1-1.807.415 5.624 5.624 0 0 1-1.818-.296c-.095-.033-.198-.07-.297-.107v-6.235l.08-.04c.289-.132.559-.244.81-.336a4.048 4.048 0 0 1 1.402-.257c.61-.02 1.214.112 1.759.385.476.26.849.675 1.057 1.176.251.641.369 1.327.346 2.015.021.7-.114 1.395-.395 2.035ZM119.01 8.528c-.37.1-.722.253-1.047.455a5.16 5.16 0 0 0-.929.74c-.046.047-.092.1-.138.149V8.4l-2.016.296v9.978h2.016V11.21a5.204 5.204 0 0 1 1.077-.577 6.86 6.86 0 0 1 .622-.208 4.23 4.23 0 0 1 1.383-.148l.237-1.857a3.757 3.757 0 0 0-1.205.108ZM130.608 17.43a.9.9 0 0 1-.77-.316 1.695 1.695 0 0 1-.218-1.047l.04-4.07a4.774 4.774 0 0 0-.158-1.265 3.113 3.113 0 0 0-.474-1.008 2.675 2.675 0 0 0-.82-.73 4.194 4.194 0 0 0-1.196-.455 7.029 7.029 0 0 0-1.561-.158c-.416 0-.832.026-1.244.079a8.51 8.51 0 0 0-1.156.227c-.352.096-.699.211-1.038.346l-.237 1.68a11.643 11.643 0 0 1 1.798-.495c.271-.051.545-.088.82-.108.27-.02.537-.03.8-.03a4.43 4.43 0 0 1 1.196.138c.285.072.546.214.76.415.191.196.327.438.396.702.084.325.124.661.118.997l-.002.496-2.309.157a6.13 6.13 0 0 0-2.292.513 3.28 3.28 0 0 0-1.354 1.097 2.55 2.55 0 0 0-.444 1.452c-.004.486.115.965.345 1.393.242.44.606.8 1.048 1.037.539.28 1.141.417 1.748.395a4.55 4.55 0 0 0 1.67-.276 3.85 3.85 0 0 0 1.244-.79c.137-.132.267-.27.389-.415.038.205.111.402.214.582.176.303.447.539.771.672.357.144.74.214 1.126.208.118 0 .234-.004.346-.01a1.84 1.84 0 0 0 .326-.05l.286-.069c.077-.017.153-.04.227-.069l.218-1.324a1.742 1.742 0 0 1-.336.08 2.289 2.289 0 0 1-.277.02Zm-3.29-.89c-.214.17-.446.316-.691.436a3.142 3.142 0 0 1-.77.257c-.277.053-.558.08-.84.078a2.23 2.23 0 0 1-.939-.177 1.294 1.294 0 0 1-.583-.504 1.473 1.473 0 0 1-.197-.78c-.019-.33.071-.656.257-.93.215-.25.506-.424.829-.493a6.015 6.015 0 0 1 1.541-.158h1.731l-.009 1.96c-.101.114-.21.218-.329.312ZM124.295 6.8c.374.177.783.265 1.196.257.423.008.843-.083 1.225-.267.344-.167.635-.427.84-.75.211-.348.317-.75.306-1.156a2.037 2.037 0 0 0-.652-1.58 2.402 2.402 0 0 0-1.68-.594 2.86 2.86 0 0 0-1.195.247 1.97 1.97 0 0 0-.86.741 2.202 2.202 0 0 0-.316 1.205c-.013.41.093.816.307 1.166.203.316.491.569.829.731Zm.317-2.845a1.262 1.262 0 0 1 .918-.316c.245-.011.488.047.702.168.172.106.31.26.395.444.088.2.132.415.128.633.004.218-.043.435-.138.632-.089.182-.23.333-.405.435-.215.114-.458.169-.701.158a1.487 1.487 0 0 1-.672-.139.898.898 0 0 1-.415-.415 1.483 1.483 0 0 1-.138-.671 1.222 1.222 0 0 1 .326-.929ZM139.183 18.675h2.608l-4.793-5.4 4.694-4.677h-2.47l-3.381 3.715h-.728V3.757l-2.016.297v14.62h2.016v-4.84h.033l4.037 4.84Z"/></svg>
